X: 265
%
U:~=!turn!
T: Johnnie's Made a Waddin' O't
C:
O:Scotland
B:Keith Norman MacDonald : "The Skye collection of the best reels & strathspeys extant" : 1887
Z:Ralph Palmer
R:Reel
M:C|
L:1/8
K:G
c | BGdG BGG_B | (A=F)cF AFFA | BGdG BGGg | egdg BGG :| g | (bg)af gdde | ~=fd{/d}c_B AFFg |
(bg)af gdd=f | eg^fa gGGg | (bg)af gdde | =fd{/d}c_B AFFA | G_BAc Bdc_e | dg^fa gGG |]


